public/assets/images/utils/linkedin-logo.svg

<svg width="24" height="24" viewBox="0 0 24 24" fill="none" xmlns="http://www.w3.org/2000/svg">
<rect width="24" height="24" rx="12" fill="#DBECFF"/>
<path fill-rule="evenodd" clip-rule="evenodd" d="M3.19961 1.59998C2.31596 1.59998 1.59961 2.31633 1.59961 3.19998V20.8C1.59961 21.6837 2.31596 22.4 3.19961 22.4H20.7996C21.6833 22.4 22.3996 21.6837 22.3996 20.8V3.19998C22.3996 2.31633 21.6833 1.59998 20.7996 1.59998H3.19961ZM4.87961 9.59998H7.91961V19.2H4.87961V9.59998ZM8.11961 6.40798C8.11961 7.35791 7.34955 8.12797 6.39961 8.12797C5.44969 8.12797 4.67961 7.35791 4.67961 6.40798C4.67961 5.45804 5.44969 4.68798 6.39961 4.68798C7.34955 4.68798 8.11961 5.45804 8.11961 6.40798ZM19.1996 13.3714C19.1996 10.4833 17.333 9.3605 15.4788 9.3605C14.8716 9.33058 14.2671 9.45788 13.7256 9.72969C13.3144 9.93609 12.8838 10.4083 12.5519 11.2296H12.4665V9.60068H9.59961V19.2075H12.6495V14.0979C12.6054 13.5746 12.7728 12.8982 13.1155 12.4958C13.4581 12.0933 13.9482 11.9972 14.3198 11.9484H14.4357C15.4056 11.9484 16.1254 12.5488 16.1254 14.0619V19.2075H19.1751L19.1996 13.3714Z" fill="#09355D"/>
</svg>

<svg xmlns="http://www.w3.org/2000/svg" fill="none" viewBox="0 0 24 24"><rect width="24" height="24" fill="#dbecff" rx="12"/><path fill="#09355d" fill-rule="evenodd" d="M3.2 1.6a1.6 1.6 0 0 0-1.6 1.6v17.6a1.6 1.6 0 0 0 1.6 1.6h17.6a1.6 1.6 0 0 0 1.6-1.6V3.2a1.6 1.6 0 0 0-1.6-1.6zm1.68 8h3.04v9.6H4.88zm3.24-3.192a1.72 1.72 0 1 1-3.44 0 1.72 1.72 0 0 1 3.44 0m11.08 6.963c0-2.888-1.867-4.01-3.721-4.01a3.5 3.5 0 0 0-1.753.369c-.412.206-.842.678-1.174 1.5h-.085V9.6H9.6v9.608h3.05v-5.11c-.045-.523.123-1.2.466-1.602.342-.403.832-.499 1.204-.548h.116c.97 0 1.69.6 1.69 2.114v5.146h3.05z" clip-rule="evenodd"/></svg>
